X:1
%
T:Quadrille des ancêtres 2e figure
T:Quadrilles des Ancêtres [Figure 2]
S:rept. de Isadore Soucy
M:2/4
L:1/8
Z:Transcribed by Steve Fry. "Music from Identitair Quebecois, updated to Lisa Ornstein
Z:& Andre Marchand "Fine Summer's Day." Simplified chords."
K:D
|:"D"Ad "G"Bc/B/|"D"Ad "G"Bc/B/|"D"Ad "G"(3f/g/f/e|"Em"Bc "A"ed|
"D"A>d "G"B/B/c/B/|"D"A>d "G"B/B/c/B/|"D"Ad "G"(3f/g/f/e|"A"Bc "D"d>d:|
M:3/4
L:1/8
|:"D"Ad (3d/d/d/ d/d/ cd|\
M:2/4
L:1/8
"A"ee Ac|e/e/e/e/ ed|
"D"f/g/f/e/ fa|"D/C"gf ed|"G/B"Bc/B/ Ad|"A"(3f/g/f/B c|\
M:1/4
L:1/8
|1 d>d:|2 "D"d2||

